svg/black/sc.svg

<svg xmlns="http://www.w3.org/2000/svg" width="32" height="32" viewBox="0 0 32 32">
  <path fill-rule="evenodd" d="M16,32 C7.163444,32 0,24.836556 0,16 C0,7.163444 7.163444,0 16,0 C24.836556,0 32,7.163444 32,16 C32,24.836556 24.836556,32 16,32 Z M22.1888477,14.0076952 C20.4681646,12.9262347 18.311921,12.8152916 16.4990641,13.6690844 C16.4981267,13.6676781 16.4971893,13.6665843 16.496252,13.665178 C15.5335819,14.0994185 14.3754718,13.9456608 13.552781,13.2079675 C13.5154428,13.1746846 13.4788857,13.1410892 13.4427973,13.1049937 L9.79130598,9.45277925 C9.79099354,9.45246674 9.78771277,9.45090416 9.78833769,9.44981035 C9.54384258,9.17604662 9.44229511,8.82446649 9.48057069,8.48194932 C9.47978955,8.48132428 9.4783835,8.48148054 9.47775861,8.48116803 C9.49166279,8.40600801 9.49963038,8.32912915 9.4997866,8.24975017 C9.49963038,7.55955931 8.94002563,7 8.24981519,7 C7.55960475,7 7,7.55971557 7,8.25006269 C7,8.94009729 7.55944853,9.50012537 8.24965897,9.50012537 C8.32886598,9.50012537 8.40604208,9.49184371 8.48118722,9.4777805 C8.48149966,9.47871805 8.48196836,9.47934308 8.4822808,9.48012437 C8.82488639,9.4418412 9.18358335,9.53668971 9.45698042,9.78123322 C9.45823022,9.78060819 9.45963627,9.7838896 9.45994875,9.78420212 L13.128625,13.4536049 C13.1586206,13.4836064 13.1831482,13.5179831 13.211269,13.5493909 C13.9494411,14.3728697 14.1002,15.5344905 13.6649519,16.4975075 C13.6662017,16.4984451 13.6665142,16.4996951 13.667764,16.5006327 C12.8138278,18.3136923 12.9242802,20.4711443 14.0056828,22.1923244 C14.2373673,22.5620304 14.5123266,22.9117354 14.8333729,23.2331578 C15.8568153,24.2566466 17.2152082,24.8627708 18.55501,24.981683 C18.9058957,25.0123095 23.9064062,24.9952774 23.9064062,24.9952774 C24.1774599,24.9952774 24.4560124,24.8608957 24.6478591,24.6693236 C24.8395495,24.4777514 24.9999945,24.1728924 24.9999945,23.9014726 C24.9999945,23.9014726 24.999682,19.2993668 24.9999945,19.0574797 C25.0006194,18.8157488 24.9479709,18.4685439 24.9435966,18.4188539 C24.8248641,17.0786304 24.2538548,15.8593505 23.2304124,14.8357054 C22.9092099,14.5147519 22.5581681,14.2395818 22.1888477,14.0076952 Z M22.509269,18.063211 C22.6498733,18.7540269 22.656591,19.0577922 22.656591,19.1038882 L22.656591,21.557605 C22.656591,21.8291811 22.5358276,22.1471658 22.3441372,22.3388942 C22.1524468,22.5306226 21.8342126,22.6514099 21.5630027,22.6514099 L19.1799176,22.6514099 C19.1339869,22.6514099 18.5745384,22.644847 18.0602395,22.5029649 C17.4845433,22.344207 16.9421235,22.0324726 16.4904716,21.5807312 C15.0892725,20.1797234 15.0894288,17.8960152 16.4903154,16.4946949 C17.8915144,15.0935309 20.1808634,15.0925933 21.5819062,16.4937573 C22.0335582,16.9453425 22.3899117,17.4781817 22.509269,18.063211 Z"/>
</svg>

<svg xmlns="http://www.w3.org/2000/svg" width="32" height="32"><path fill-rule="evenodd" d="M16 32C7.163 32 0 24.837 0 16S7.163 0 16 0s16 7.163 16 16-7.163 16-16 16zm6.189-17.992a5.953 5.953 0 0 0-5.69-.339l-.003-.004a2.728 2.728 0 0 1-3.053-.56L9.79 9.453l-.003-.003a1.239 1.239 0 0 1-.307-.968h-.003a1.25 1.25 0 1 0-.997.997l.001.001c.343-.038.702.057.975.301l.003.003 3.669 3.67c.03.03.054.064.082.095.738.824.89 1.985.454 2.949l.003.003a5.957 5.957 0 0 0 1.165 6.732 6.09 6.09 0 0 0 3.722 1.749c.35.03 5.351.013 5.351.013.271 0 .55-.134.742-.326.192-.191.352-.496.352-.768v-4.844c0-.241-.052-.588-.056-.638-.12-1.34-.69-2.56-1.714-3.583a5.94 5.94 0 0 0-1.041-.828zm.32 4.055c.14.691.148.995.148 1.04v2.455c0 .271-.121.59-.313.78-.192.193-.51.313-.781.313H19.18c-.046 0-.605-.006-1.12-.148a3.603 3.603 0 0 1-1.57-6.008 3.61 3.61 0 0 1 5.092-.001c.452.451.808.984.927 1.57z"/></svg>
